X:26
T:High Five
C:William Bay
N:TablEdited by Kim Davis
L:1/8
Q:1/4=220
M:4/4
K:F
z8 |: "Dm"DE FG Ad fd | "C"cG EF GF z2 | "Dm"D_D =DE FG Ad | "A7#5"e_d =da z4 | 
"Dm"_a=a fd Ad AF | "Gm"EG cB "A7#5"AF _DA, | "Dm"DE FG Af z2 | "A7"eg fd "Dm"z4 | 
"C"cg ec "Gdim"_dB AG | "Dm"FA ED A,F z2 | "Gm"G,B, A,D "A7"EG "Dm"Fd | "Gdim"e_d BG "A7"E_D B,A, | 
"Dm"D_D =DE FA d_a | "A7#5"a_a gf "Dm"zd z2 | Ad fd Ad AF | "A7b9"EB AD "Dm"z4 :| 


